X:1
T: Mr George Morrison
C:Alexander Walker
R:Strathspey
Q: 128
K:Bb
M:4/4
L:1/16
|:b2|fB3 d3c B4 F3B|e3g d3f gc3 c3b|fB3 d3c B4 F2B2|eg3 f3e dB3 B2b2|
fB3 d3c B4 F3B|e3g d3f gc3 c3b|fB3 d3c B4 F2B2|eg3 f3e dB3 B2e2|
d3f B3f df3 b3f|d3f B3d cF3 F3d|B3f d3f B3c d3c|B3G F3E DB,3 B,3d|
B3f d3f Bf3 b3f|e3c d3B cC3 C3a|bagf gfed c3B c3d|G3c BAGF B6:|
